T: Waltz Of The Little Girls, The
M: 3/4
L: 1/8
K: Dmaj
B2 BA GA | B2 gf ed | B2 BA GB | c2 cB cd |e2 ed cB | A2 AB cd | e2 ed ef |[1 ed :|[2 g2 ||f2 fe dB | GB eB dB | AB dg Af | g2 GB dg |f2 fe dB | GB eB dB | AB dg Af | g2 :|~ | fg fe d^c | ed Bd Gd | Ad FA (3def | g3 B dg | ~
